img/icons/Figma.svg

<svg width="56" height="56" viewBox="0 0 56 56" fill="none" xmlns="http://www.w3.org/2000/svg">
<circle cx="28" cy="28" r="22" fill="#C4C4C4" fill-opacity="0.4"/>
<g clip-path="url(#clip0)">
<path d="M23.001 45C25.7604 45 28 42.76 28 40V35H23.001C20.2415 35 18.002 37.24 18.002 40C18.002 42.76 20.2415 45 23.001 45Z" fill="#0ACF83"/>
<path d="M18.002 30C18.002 27.24 20.2415 25 23.001 25H28V35H23.001C20.2415 35 18.002 32.76 18.002 30Z" fill="#A259FF"/>
<path d="M18.01 20C18.01 17.24 20.2496 15 23.009 15H28.008V25H23.009C20.2496 25 18.01 22.76 18.01 20Z" fill="#F24E1E"/>
<path d="M28 15H32.999C35.7584 15 37.998 17.24 37.998 20C37.998 22.76 35.7584 25 32.999 25H28V15Z" fill="#FF7262"/>
<path d="M37.998 30C37.998 32.76 35.7584 35 32.999 35C30.2396 35 28 32.76 28 30C28 27.24 30.2396 25 32.999 25C35.7584 25 37.998 27.24 37.998 30Z" fill="#1ABCFE"/>
</g>
<path d="M8.20101 8.20101C3.62041 12.7816 0.769777 18.8088 0.134828 25.2555C-0.500122 31.7023 1.1199 38.1698 4.71885 43.556C8.31781 48.9422 13.673 52.9139 19.872 54.7943C26.071 56.6748 32.7303 56.3476 38.7151 53.8686C44.7 51.3896 49.6401 46.9121 52.6938 41.1991C55.7475 35.4861 56.7258 28.8909 55.462 22.5375C54.1982 16.184 50.7705 10.4653 45.763 6.35571C40.7555 2.24614 34.478 4.89072e-07 28 0V4.2849C33.4866 4.2849 38.8035 6.18731 43.0447 9.66798C47.2859 13.1487 50.189 17.9922 51.2594 23.3734C52.3298 28.7546 51.5012 34.3405 48.9148 39.1792C46.3285 44.018 42.1443 47.8103 37.0754 49.9099C32.0064 52.0095 26.3662 52.2866 21.1159 50.6939C15.8655 49.1013 11.3298 45.7374 8.28162 41.1754C5.23342 36.6135 3.86131 31.1357 4.3991 25.6755C4.93688 20.2153 7.35127 15.1105 11.2309 11.2309L8.20101 8.20101Z" fill="#3B5999"/>
<defs>
<clipPath id="clip0">
<rect width="20" height="30" fill="white" transform="translate(18 15)"/>
</clipPath>
</defs>
</svg>

<svg width="56" height="56" fill="none" xmlns="http://www.w3.org/2000/svg"><circle cx="28" cy="28" r="22" fill="#C4C4C4" fill-opacity=".4"/><g clip-path="url(#clip0)"><path d="M23.001 45C25.761 45 28 42.76 28 40v-5h-4.999a5.001 5.001 0 00-4.999 5c0 2.76 2.24 5 4.999 5z" fill="#0ACF83"/><path d="M18.002 30c0-2.76 2.24-5 4.999-5H28v10h-4.999a5.001 5.001 0 01-4.999-5z" fill="#A259FF"/><path d="M18.01 20c0-2.76 2.24-5 4.999-5h4.999v10h-4.999a5.001 5.001 0 01-4.999-5z" fill="#F24E1E"/><path d="M28 15h4.999a5.001 5.001 0 010 10H28V15z" fill="#FF7262"/><path d="M37.998 30c0 2.76-2.24 5-4.999 5A5.001 5.001 0 0128 30c0-2.76 2.24-5 4.999-5 2.76 0 4.999 2.24 4.999 5z" fill="#1ABCFE"/></g><path d="M8.201 8.201A28 28 0 1028 0v4.285a23.715 23.715 0 11-16.77 6.946L8.202 8.2z" fill="#3B5999"/><defs><clipPath id="clip0"><path fill="#fff" transform="translate(18 15)" d="M0 0h20v30H0z"/></clipPath></defs></svg>
